X:1
T:Midsummer Nights' Dream
T:Felix Mendelssohn
T:Arranged by Sidney Smith
T:Paraphrase de Concert
%%score { ( 1 4 ) | ( 2 3 ) } { ( 5 7 ) | ( 6 8 ) }
L:1/8
Q:1/4=48
M:4/4
K:E
V:1 treble nm="Piano I" snm="Pno. I"
V:4 treble 
V:2 treble 
V:3 treble 
V:5 bass nm="Piano II" snm="Pno. II"
V:7 bass 
V:6 bass 
V:8 bass 
V:1
!p!"^Lento" !fermata![eg]4 !fermata![dfb]4 | !fermata![ea=c'e']4!p! !fermata![gbe'g']4 || %2
!p![Q:1/4=144]"^Allegro vivace" b/e'/=d'/=c'/ b/e'/d'/c'/ b/a/=g/a/ b/a/g/a/ | %3
 b/=c'/b/a/ =g/c'/b/a/ g/f/e/f/ g/f/e/f/ | =g/b/g/b/ a/b/f/b/ g/b/g/b/ a/b/f/b/ | %5
 =g/b/[I:staff +1]e/[I:staff -1][g=c']/[I:staff +1] d/[I:staff -1][fb]/[I:staff +1]e/[I:staff -1][gc']/[I:staff +1] d/[I:staff -1][fb]/[I:staff +1]e/[I:staff -1][gc']/[I:staff +1] d/[I:staff -1][fb]/[I:staff +1]e/[I:staff -1][gc']/ | %6
 [fb] z!8va(! b'/^g'/f'/d'/!8va)! b/g/f/d/ B/[I:staff +1]G/F/D/ | %7
[I:staff -1] z2 [dfb]2[Q:1/4=48]"^Lento" z2 z2 || %8
[Q:1/4=48]"^Lento"!pp! !fermata![eg]4!p! !fermata![dfb]4 | %9
!mf! !fermata![e=c'e']4!f! !fermata![=gb=g']4 | %10
[Q:1/4=144]"^Allegro vivace"!8va(! =d'/=g'/f'/e'/ d'/g'/f'/e'/ d'/=c'/b/c'/ d'/c'/b/c'/ | %11
 =d'/e'/d'/=c'/ b/e'/d'/c'/!8va)! b/a/=g/a/ b/a/g/a/ | b/=g/b/g/ b/g/b/g/ b/g/b/g/ b/g/b/g/ | %13
 b/=g/b/g/ b/g/b/g/ b/g/b/g/ b/g/b/g/ | b/=g/b/g/ b/g/b/g/ b/g/b/g/ b/g/b/g/ | %15
 b/=g/b/g/ b/g/b/g/ b/g/b/g/ b/g/b/g/ | =c'/e/c'/e/ c'/e/c'/e/ c'/e/c'/e/ c'/e/c'/e/ | %17
 =c'/e/c'/e/ c'/e/c'/e/ c'/e/c'/e/ c'/e/c'/e/ | =c'/e/c'/e/ c'/e/c'/e/ c'/e/c'/e/ c'/e/c'/e/ | %19
 ^a/e/a/e/ a/e/a/e/ a/e/a/e/ a/e/a/e/ | [db]2 z2 z2!8va(! [d'f'b'] z | %21
 [=c'e'a'] z [be'=g'] z [ac'f'] z [=gbe']!8va)! z | [fa=d'] z [e=g=c'] z [^dfb] z [=cea] z | %23
 [Be=g] z [A=cf] z [=GBe] z [F^A^cf] z | B2 z2 z2!p![I:staff +1] d/[I:staff -1]f/b/f/ | %25
[I:staff +1] =c/[I:staff -1]e/a/e/[I:staff +1] B/[I:staff -1]e/=g/e/[I:staff +1] A/[I:staff -1]c/f/c/[I:staff +1] =G/[I:staff -1]B/e/B/ | %26
[I:staff +1] F/[I:staff -1]A/=d/A/[I:staff +1] E/[I:staff -1]=G/=c/G/[I:staff +1] ^D/[I:staff -1]F/B/F/[I:staff +1] F/[I:staff -1]A/^d/A/ | %27
[I:staff +1] =G/[I:staff -1]B/e/B/[I:staff +1] B/[I:staff -1]e/=g/e/[I:staff +1] A/[I:staff -1]B/f/B/[I:staff +1] G/[I:staff -1]B/e/B/ | %28
 [Bd]2 z2 z2 [Bb]2- | [Bb]2 z2 z2 [Bb]2- | [Bb]2 z2 z2 F2- | F2 z2 z2 F2- | F2 z2 z4 | z8 | %34
[Q:1/4=48] z8 |[M:3/4][Q:1/4=72]"^Con moto tranquillo" z2 | z6 | z6 |"^Notturno" z6 | z6 | z6 | %41
 z6 | z6 | z6 | z6 | z6 | z6 | z6 | z6 | z6 | z6 |!p! z6 | z2 [gb][eg][df][eg] | %53
 [ea]3 [dg][cf][Be] | [ABd]2 [Be]2 [=Gc]2 | [F^A]2 [FB]2 z2 | [gb]3 [eg][df][eg] | b a2 gfe | %58
 e>d d2 e2 | ^e2 f4 | z B [Bd]2 [Be]2 |[Q:1/4=48] !fermata!g2 !fermata!f2[Q:1/4=72] z2 | %62
!p!!8va(! b'/4g'/4e'/4b/4b'/4g'/4e'/4b/4 b'/4g'/4e'/4b/4b'/4g'/4e'/4b/4 b'/4g'/4e'/4b/4b'/4f'/4d'/4b/4 | %63
 z/4 b/4d'/4f'/4b'/4f'/4d'/4b/4 z/4 b/4e'/4g'/4b'/4g'/4e'/4b/4 z/4 e'/4g'/4b'/4e''/4b'/4g'/4e'/4 | %64
 z/4 e'/4a'/4c''/4e''/4c''/4a'/4e'/4 z/4 e'/4g'/4b'/4e''/4b'/4g'/4e'/4 z/4 e'/4f'/4a'/4e''/4a'/4f'/4e'/4 | %65
 z/4 e'/4g'/4b'/4e''/4b'/4g'/4e'/4 e''/4b'/4g'/4e'/4e''/4b'/4g'/4e'/4 z/4 g'/4b'/4e''/4g''/4e''/4c''/4g'/4 | %66
 z/4 e'/4g'/4c''/4e''/4c''/4g'/4e'/4 z/4 d'/4g'/4c''/4d''/4c''/4g'/4d'/4 z/4 e'/4g'/4c''/4e''/4c''/4g'/4e'/4 | %67
 z/4 e'/4a'/4c''/4e''/4c''/4a'/4e'/4 z/4 f'/4a'/4c''/4f''/4c''/4a'/4f'/4 f''/4c''/4a'/4f'/4f''/4c''/4a'/4f'/4 | %68
 z/4 c'/4f'/4a'/4c''/4a'/4f'/4c'/4 c''/4a'/4f'/4c'/4c''/4a'/4f'/4c'/4 z/4 c'/4f'/4a'/4c''/4a'/4f'/4c'/4 | %69
 z/4 b/4e'/4f'/4b'/4f'/4e'/4b/4 z/4 b/4d'/4f'/4b'/4f'/4d'/4b/4 z/4 b/4d'/4f'/4b'/4f'/4d'/4b/4 | %70
 z/4 b/4e'/4g'/4b'/4g'/4e'/4b/4 b'/4g'/4e'/4b/4b'/4g'/4e'/4b/4 b'/4g'/4e'/4b/4b'/4f'/4d'/4b/4 | %71
 z/4 b/4d'/4f'/4b'/4f'/4d'/4b/4 z/4 b/4e'/4g'/4b'/4g'/4e'/4b/4 z/4 e'/4g'/4b'/4e''/4b'/4g'/4e'/4 | %72
 z/4 f'/4a'/4c''/4e''/4c''/4a'/4e'/4 z/4 e'/4g'/4b'/4e''/4b'/4g'/4e'/4 z/4 e'/4f'/4a'/4e''/4a'/4f'/4e'/4 | %73
 z/4 e'/4g'/4b'/4e''/4b'/4g'/4e'/4 e''/4b'/4g'/4e'/4e''/4b'/4g'/4e'/4 z/4 g'/4b'/4e''/4g''/4e''/4b'/4g'/4 | %74
 z/4 f/4^a/4c'/4e'/4f'/4^a'/4c''/4!p! e''/4c''/4a'/4f'/4e'/4c'/4a/4f/4 (3z/ f/a/(3e'/a/f/ | %75
 (3z/ b/d'/(3f'/b'/d''/ (3f''/d''/b'/(3f'/d'/b/ (3z/ b/d'/(3f'/d'/b/ | %76
 z/4 b/4=d'/4^e'/4g'/4b'/4=d''/4^e''/4 g''/4e''/4d''/4b'/4g'/4e'/4d'/4b/4 (3z/ b/d'/(3g'/d'/b/ | %77
 (3z/ c'/f'/(3a'/c''/f''/ (3a''/f''/c''/(3a'/f'/c'/ (3z/ c'/f'/(3a'/f'/c'/ | %78
 (3z/!mf! d'/f'/(3c''/f'/d'/ (3z/ d'/f'/(3c''/f'/d'/ (3z/ d'/f'/(3c''/f'/d'/ | %79
 (3z/ e'/g'/(3c''/g'/e'/ (3c''/g'/e'/!>(!(3b'/g'/e'/!mp! (3a'/f'/c'/(3f'/c'/a/!>)! | %80
!p! (3z/ b/b'/(3b/b'/b/ (3b/b'/b/!p!(3b/b'/b/ (3b/b'/b/(3b/b'/b/ | %81
 (3z/ b/b'/(3b/b'/b/ (3b/b'/b/(3b/b'/b/ (3z/ b/b'/(3b/b'/b/ | %82
 (3z/ ^e'/g'/(3b'/g'/e'/ (3z/ c'/e'/(3a'/e'/c'/ (3z/ c'/e'/(3g'/e'/c'/ | %83
 (3z/ c'/^e'/(3g'/e'/c'/ (3z/ c'/f'/(3a'/f'/c'/ (3z/ c'/f'/(3a'/f'/c'/ | %84
 (3z/ d'/^a'/(3c''/a'/d'/ (3z/ d'/^^f'/(3b'/f'/d'/ (3z/ d'/f'/(3b'/f'/d'/ | %85
 (3z/ d'/^^f'/(3^a'/f'/d'/ (3z/ d'/g'/(3b'/g'/d'/ (3z/ d'/=a'/(3b'/a'/d'/ | %86
!p! [g'b'][e'g'] [be'g']2 [ad'f']2 | [g'b'][e'g'] [be'g']2 [ad'f']2 | [bb']2 [e'e'']2 [e'e'']2 | %89
 [e'e'']2 [e'e'']2 [e'e'']2 | [e'e'']2 [d'd'']2 [c'c'']2 | [bb']2 [aa']2 [gg']2 | %92
 [ff']2 [ee']2 [cc']2 | c'6 | c'4!p! b2 |!pp! !arpeggio![be'g']6 | !arpeggio![bb']6 | %97
 !arpeggio![e'a'=c''e'']6 | !arpeggio![e'a'=c''e'']6 | !arpeggio![g'b'e''g'']!8va)! e' Te'4- | %100
 e'6- | e'6 | %102
 e'/4f'/4e'/4f'/4[Q:1/4=66]e'/4f'/4e'/4f'/4e'/4f'/4e'/4f'/4[Q:1/4=60]e'/4f'/4e'/4f'/4 (5:4:5e'/f'/e'/f'/e'/ | %103
[Q:1/4=54]!8va(!{/e'} e''2!8va)! e'2 e2 |[Q:1/4=48] e6 || %105
[K:Db][M:4/4][Q:1/4=144]"^Allegro vivace" z4 z2 (3.a.a.a!f! | a2 z2 z2 (3.a.a.a"^Wedding March" | %107
 a2 z2 z2 (3.a.a.a | a2 (3cea c'2 (3eac' | e'2 (3ac'e' a'2 (3.a.a.a | a2 z2 z2 (3.a.a.a | %111
 a2 z2 z2 (3.a.a.a | a2 (3d_fa d'2 (3fad' | _f'2 (3ad'f' a'2 (3aaa | a2 (3ac'e' a'2 (3aaa | %115
 a2 (3a=b=d' a'2 (3aaa | a2 (3ac'e' a'2 (3aaa | a2 (3a=b=d' a'2 (3aaa | a2 a=g agag | %119
!f! a!<(!=gag a=ab!<)!c' ||!ff![Q:1/4=132]"^Con maesta"!8va(! [d'd'']4 [c'c'']3 [=g=g'] | %121
 [bb']2 [aa']2 [_g_g']2 e'2 | %122
 Td'/4e'/4d'/4e'/4d'/4e'/4d'/4e'/4d'/4e'/4d'/4e'/4c'/d'/!ff! e'2 a>e' | f'2 df a[dd'][ff'][aa'] | %124
 [d'd'']4 [c'c'']3 [=g=g'] | [bb']2 [aa']2 [_g_g']2 e'2 | %126
 Td'/4e'/4d'/4e'/4d'/4e'/4d'/4e'/4d'/4e'/4d'/4e'/4c'/d'/!ff! f'2 e'>f' | [gc'e']4 [fd']2 z2 | %128
 [fad']4 [fad']3 [fad'] | [ad'f']2 [gac'e']2 [egac']2 [cega]2 | %130
 [dfa]7/2 [fad']/ [fad']7/2 [ad'f']/ | [ad'f']2 [gac'e']2 [egac']2 [cega]2 | %132
 [dfa]7/2 [ad'f']/ [ad'f']7/2 [bd'f'a']/ | [bd'f'a']4 [be'g']2 [bd'f']2 | %134
 [gbe']2 [gb=d']f' [gbe']2 b_d' | c'2 [aa']2 [bb']2 [c'c'']2 | [d'd'']4 [c'c'']3 [=g=g'] | %137
 [bb']2 [aa']2 [_g_g']2 e'2 |!f! Td'/4e'/4d'/4e'/4d'/4e'/4d'/4e'/4d'/4e'/4d'/4e'/4c'/d'/ e'2 a>e' | %139
 f'2 df a[dd'][ff'][aa'] | [d'd'']4 [c'c'']3 [=g=g'] | [bb']2 [aa']2 [_g_g']2 e'2 | %142
 Td'/4e'/4d'/4e'/4d'/4e'/4d'/4e'/4d'/4e'/4d'/4e'/4c'/d'/!ff! f'2 e'>f' | [gc'e']4 [fd']2!mf! d'2 | %144
 a2 b2 _c'2 =c'2 | d'2 g'2 b'2 g'2 | f'2 e'2 d'2 =c'2 | c'4 d'2 d'2 | g'4 d'2 b2 | d'4 b2 g2 | %150
 b2 a2 b2 _c'2 | b4 z2 d'2 | d''2 b'2 f'2 g'2 | b'3 a' g'2 f'2 | d''2 b'2 f'2 g'2 | %155
 b'3 a' g'2 f'2 | [a'a'']3 [g'g''] [f'f'']2 [e'e'']2 | [=d'=d'']2 [e'e'']2 [g'g'']2 [e'e'']2 | %158
 [_d'_d'']2 [bb']2 [aa']2 [_c'_c'']2 | [bb']6 b2 | b3 _c' b2 b2 | [bb']4 g'2 b2 | b3 _c' b2 b2 | %163
 [bb']4 g'2 e'2 | f'3 e' e'2 e'2 | f'3 e' e'2 e'2 | g'2 f'2 e'2 f'2 | e'4 =d'2 b_c' | %168
 d'3 e' d'2 d'2 | [d'd'']4 [aa']2 d'2 | d'3 e' d'2 d'2 | [d'd'']4 [aa']2 (3d'd'd' | d'6 (3d'd'd' | %173
 d'6 (3d'd'd' | d'2 (3d'd'd' d'2 (3d'd'd' | d'2 (3d'd'd' d'2 (3d'd'd' | %176
!ff! [d'd'']4!f! [c'c'']3 [=g=g'] | [bb']2 [aa']2 [_g_g']2 [ee']2 | %178
 Td'/4e'/4d'/4e'/4d'/4e'/4d'/4e'/4d'/4e'/4d'/4e'/4c'/d'/!ff! e'2 a>e' | %179
 f'2 df a!ff![dd'][ff'][aa'] |!ff! [d'd'']4 [c'c'']3 [=g=g'] | [bb']2 [aa']2 [_g_g']2 e'2 | %182
!f! Td'/4e'/4d'/4e'/4d'/4e'/4d'/4e'/4d'/4e'/4d'/4e'/4c'/d'/!ff! f'2 e'>f' | [gc'e']4 [fd']2 z2 | %184
 [fad']4 [fad']3 [fad'] | [ad'f']2 [gac'e']2 [egac']2 [cega]2 | %186
 [dfa]7/2 [fad']/ [fad']7/2 [ad'f']/ | [ad'f']2 [gac'e']2 [egac']2 [cega]2 | %188
 [dfa]7/2 [ad'f']/ [ad'f']7/2 [bd'f'a']/ | [bd'f'a']4 [be'g']2 [bd'f']2 | %190
 [gbe']2 [gb=d']f' [gbe']2 b_d' | c'2 [aa']2 [bb']2 [c'c'']2 | [d'd'']4 [c'c'']3 [=g=g'] | %193
 [bb']2 [aa']2 [_g_g']2 e'2 | %194
!f! Td'/4e'/4d'/4e'/4d'/4e'/4d'/4e'/4d'/4e'/4d'/4e'/4c'/d'/!ff! e'2 a>e' | %195
 f'2 df a[dd'][ff'][aa'] | [d'd'']4 [c'c'']3 [=g=g'] | [bb']2 [aa']2 [_g_g']2 e'2 | %198
 d'2!8va)![Q:1/4=144]"^Allegro vivace" z2 z2 (3dd'd | d'2 z2 z2 (3dd'd | d'2 z2 z2 (3dd'd | %201
 d'2 (3dd'd d'2!ff! [dd']2 |!mf! d'/e'/d'/e'/ d'/e'/d'/e'/ d'/e'/d'/e'/ d'/e'/d'/e'/ | %203
 d'/e'/d'/e'/ d'/e'/d'/e'/ d'/e'/d'/e'/ d'/e'/d'/e'/ | %204
 d'/e'/d'/e'/ d'/e'/d'/e'/ d'/e'/d'/e'/ d'/e'/d'/e'/ | %205
 d'/e'/d'/e'/ d'/e'/d'/e'/ d'/e'/d'/e'/ d'/e'/f'/g'/ | %206
!ff!!8va(! a'/b'/a'/b'/ a'/b'/a'/b'/ a'/b'/a'/b'/ a'/b'/a'/b'/ | %207
 a'/b'/a'/b'/ a'/b'/a'/b'/ a'/b'/a'/b'/ a'/b'/a'/b'/ | %208
 a'/b'/a'/b'/ a'/b'/a'/b'/ a'/b'/a'/b'/ a'/b'/a'/b'/ | %209
 a'/b'/a'/b'/ a'/b'/a'/b'/ a'/b'/a'/b'/ a'/b'/a'/b'/!8va)! | %210
 d'/e'/d'/e'/ d'/e'/d'/e'/ d'/e'/d'/e'/ d'/e'/d'/e'/ | %211
 d'/e'/d'/e'/ d'/e'/d'/e'/ d'/e'/d'/e'/ d'/e'/d'/e'/ | %212
 d'/e'/d'/e'/ d'/e'/d'/e'/ d'/e'/d'/e'/ d'/e'/d'/e'/ | %213
 d'/e'/d'/e'/ d'/e'/d'/e'/ d'/e'/d'/e'/ d'/e'/f'/g'/ | %214
!ff!!8va(! a'/b'/a'/b'/ a'/b'/a'/b'/ a'/b'/a'/b'/ a'/b'/a'/b'/ | %215
 a'/b'/a'/b'/ a'/b'/a'/b'/ a'/b'/a'/b'/ a'/b'/a'/b'/ | %216
 a'/b'/a'/b'/ a'/b'/a'/b'/ a'/b'/a'/b'/ a'/b'/a'/b'/ | %217
 a'/b'/a'/b'/ a'/b'/a'/b'/ a'/b'/a'/b'/ a'/b'/a'/b'/ | %218
 a'/b'/a'/b'/ a'/b'/a'/b'/ a'/b'/a'/b'/ a'/b'/a'/b'/ | %219
 a'/b'/a'/b'/ a'/b'/a'/b'/ a'/b'/a'/b'/ a'/b'/a'/b'/ | %220
 a'/b'/a'/b'/ a'/b'/a'/b'/ a'/b'/a'/b'/ a'/b'/a'/b'/ | %221
 a'/b'/a'/b'/ a'/b'/a'/b'/ a'/b'/a'/b'/ a'/b'/a'/b'/ | [d'f'a'd'']4 [d'f'a'd'']4 | [d'f'a'd'']8- | %224
[Q:1/4=36] !fermata![d'f'a'd'']2 z2!8va)! z4 |] %225
V:2
 !fermata![GB]4!mf! !fermata![FB]4 |!f! !fermata![EA=c]4 !fermata![EGBe]4 || %2
 =g[ea][eg][ea] g/f/e/f/ g/f/e/f/ | =g[^df]e[df] e/B/=G/B/ e/B/G/B/ | %4
 [=GB]/e/[GB]/e/ [FB]/d/[FB]/d/ [GB]/e/[GB]/e/ [FB]/d/[FB]/d/ | B x x2 x4 | %6
 [B^d] z!ped! z2 z4!ped-up! | B, z!ped! [DFB]2 z2!ped-up! z2 || !fermata![GB]4 !fermata![FB]4 | %9
 !fermata!=G4 !fermata![GB=d]4 | %10
!p!!ped! [=GB]/=d/[GB]/d/ [GB]/d/[GB]/d/!ped-up!!ped! [GB]/d/[GB]/d/ [GB]/d/[GB]/d/!ped-up! | %11
!ped! [=GB]/=d/[GB]/d/ [GB]/d/[GB]/d/!ped-up!!ped! [GB]/d/[GB]/d/ [GB]/d/[GB]/d/!ped-up! | %12
!ped! [=GB]2 z2 z2!ped-up!!ped! B2!ped-up! | A2 =G2 F2 E2 | =d2 =c2 B2 A2 | =G2 ^F2 E2 [=FGB]2 | %16
 [E=G=c]2 z2 z2 c2 | B2 A2 =G2 =F2 | E2 =c2 =G2 E2 | z8 | B2 z2 z2!mf! B z | B z B z B z B z | %22
 B z B z B z z2 | z8 | z2 z2 z2 x2 | x8 | x8 | x8 | F2 z2 z2 D2 | E2 z2 z2 E2 | D2 z2 z4 | z8 | %32
 z8 | z8 | z8 |[M:3/4] z2 | z6 | z6 | z6 | z6 | z6 | z6 | z6 | z6 | z6 | z6 |!p! e6- | e6 | z6 | %49
 z6 | z6 | z6 | z2 z BBB | c3 BAG | F2 G2 E2 | E2 D2 z2 | z2 z BBB | c3 BAG | A2 A2 A2 | A6 | %60
 z2 A2 A2 | !fermata!A4 B>B |!p! [GBe]3 [EGB][GBe][Bdf] | [Bdf]2 [Beg]2 [=degb]2 | %64
 [cea]2 [Beg]2 [Aef]2 | !arpeggio![egb]4 [Beg]2 | [Gce]2 [Gcd]2 [Gce]2 | [Ace]2 [Acf]3 [Bg] | %68
 [cfa]3 [Bcg][Acf][Ace] | [ABe]2 [ABd]2 [AB]>[AB] | [GBe]3 [EGB][GBe][Bdf] | %71
 [Bdf]2 [Beg]2 [=degb]2 | [cea]2 [Beg]2 [Aef]2 | !arpeggio![egb]4 [Beg]2 | %74
 [F^Ae]2!p!"^cres - cen - - do" [FAd]2 [FAe]2 | [Bdf]4 [Bdf]2 | [B=dg]2 [Bdf]2 [Bdg]2 | %77
 [cfa]4 [cfa]2 |!f! [fac']2 [fac']2 [fac']2 | [egc']3 [egb]!mf![cfa][Acf] | %80
!mp! [GBe]3!p! [EGB][GBe][Bdf] | [Bdf]2 [Beg]2 [Beg]2 | [c^eb]2 [cea]2 [ceg]2 | %83
 [c^eg]2 [cfa]2 [cfa]2 | [d^^fc']2 [dfb]2 [df^a]2 | [d^^f^a]2 [dgb]2 [d=ab]2 | %86
 [gb][eg] [Beg]2 [Adf]2 | [gb][eg] [Beg]2 [Adf]2 |"^cresc."!p! B2 e2 e2 | e2 e2 e2 |!f! e2 d2 c2 | %91
"^dim."!f! B2 c2 B2 | A2 G2!p! F2 |!p! c6 |!p! c4 B2 | !arpeggio![Beg]6 | !arpeggio!B6 | %97
 !arpeggio![ea=c']6 | !arpeggio![ea=c']6 | !arpeggio![gbe']3 .[egb].[Beg].[egb] | %100
 [egb]3 .[Beg] .[GBe].[Beg] | [Beg]3 .[GBe] .[EGB].[GBe] |"^rall." [GBe]3 .[GBe] .[Beg].[egb] | %103
 [egb]2 [Bg]2 G2 | G6 ||[K:Db][M:4/4] z8 | z8 | z8 |!ped! z4 z2!ped-up!!ped! c2 | z8!ped-up! | z8 | %111
 z8 |!ped! z4 z2!ped-up!!ped! d2 | d2 [d_f]2 [df]2!ped-up! z2 | z2!ped! (3gec A2!ped-up! z2 | %115
 z2!ped! (3f=d=B A2!ped-up! z2 | z2!ped! (3gec A2!ped-up! z2 | z2!ped! (3f=d=B A2!ped-up! z2 | %118
 A2!ped! A=G AGAG!ped-up! |!ped! A=GAG!ped-up!!ped! A=ABc!ped-up! || [=GBdf]4 [GBc=e]3 [GBce] | %121
 [Acf]2 [Acf]2 [_GBe]2 [GBe]2 |!f!!ped! Td/4e/4d/4e/4d/4e/4d/4e/4d/4e/4d/4e/4c/d/!ped-up! e2 A>e | %123
 f2 DF!ped! A z z2!ped-up! | [=GBdf]4 [GBc=e]3 [GBce] | [Acf]2 [Acf]2 [_GBe]2 [GBe]2 | %126
!f!!ped! Td/4e/4d/4e/4d/4e/4d/4e/4d/4e/4d/4e/4c/d/!ped-up! f2 e>f |!ff! [Gce]4 [Fd]2 z2 | %128
 [FAd]4 [FAd]3 [FAd] | [Adf]2 [GAce]2 [EGAc]2 [CEGA]2 | [DFA]7/2 [FAd]/ [FAd]7/2 [Adf]/ | %131
 [Adf]2 [GAce]2 [EGAc]2 [CEGA]2 | [DFA]7/2 [Adf]/ [Adf]7/2 [Bdfa]/ | [Bdfa]4 [Beg]2 [Bdf]2 | %134
 [GBe]2 [GB=d]f [GBe]2 B_d | c2 A2 B2 c2 | [=GBdf]4 [GBc=e]3 [GBce] | [Acf]2 [Acf]2 [GBe]2 [GBe]2 | %138
!ped! Td/4e/4d/4e/4d/4e/4d/4e/4d/4e/4d/4e/4c/d/!ped-up!!ff! e2 A>e | f2 DF!ped! A z z2!ped-up! | %140
 [=GBdf]4 [GBc=e]3 [GBce] | [Acf]2 [Acf]2 [_GBe]2 [GBe]2 | %142
!f!!ped! Td/4e/4d/4e/4d/4e/4d/4e/4d/4e/4d/4e/4c/d/!ped-up! f2 e>f | [Gce]4 [Fd]2 d2 | %144
!ped! A2 B2 _c2 =c2!ped-up! |!ped! d2 g2 b2 g2!ped-up! |!ped! f2 e2 d2 =c2!ped-up! | %147
!ped! c4 d2!ped-up! d2 |!ped! g4 d2 B2!ped-up! |!ped! d4 B2 G2!ped-up! | %150
!ped! B2 A2 B2 _c2!ped-up! | B4 z2 d2 |!ped! [dd']2 [Bb]2 [Ff]2 [Gg]2!ped-up! | %153
!ped! [Bb]3 [Aa] [Gg]2 [Ff]2!ped-up! |!ped! [dd']2 [Bb]2 [Ff]2 [Gg]2!ped-up! | %155
!ped! [Bb]3 [Aa] [Gg]2 [Ff]2!ped-up! |!ped! a3 g f2 e2!ped-up! |!ped! =d2 e2 g2 e2!ped-up! | %158
!ped! _d2 B2 A2 _c2!ped-up! |!ped! B6!ped-up!!p! B2 |!ped! B3 _c B2 B2!ped-up! | %161
!ped! [Beg]6 B2!ped-up! |!ped! B3 _c B2 B2!ped-up! |!ped! [Beg]6 e2!ped-up! | %164
!ped! f3 e e2 e2!ped-up! |!ped! f3 e e2 e2!ped-up! |!ped! g2 f2 e2 f2!ped-up! | %167
!ped! e4 =d2!ped-up! B_c |!ped! d3 e d2 d2!ped-up! |!ped! d6 d2!ped-up! |!ped! d3 e d2 d2!ped-up! | %171
!ped! d6!ped-up! (3ddd |!p!"^crescendo" d6 (3ddd | d6 (3ddd | d2 (3ddd d2 (3ddd | %175
 d2 (3ddd d2 (3ddd | [=GBdf]4 [GBc=e]3 [GBce] | [Acf]2 [Acf]2 [GB_e]2 [GB]2 | %178
!f!!ped! Td/4e/4d/4e/4d/4e/4d/4e/4d/4e/4d/4e/4c/d/!ped-up! e2 A>e | %179
 f2!<(! DF!ped! A z!<)! z2!ped-up! | [=GBdf]4 [GBc=e]3 [GBce] | [Acf]2 [Acf]2 [_GBe]2 [GBe]2 | %182
!ped! Td/4e/4d/4e/4d/4e/4d/4e/4d/4e/4d/4e/4c/d/!ped-up! f2 e>f | [Gce]4 [Fd]2 z2 | %184
 [FAd]4 [FAd]3 [FAd] | [Adf]2 [GAce]2 [EGAc]2 [CEGA]2 | [DFA]7/2 [FAd]/ [FAd]7/2 [Adf]/ | %187
 [Adf]2 [GAce]2 [EGAc]2 [CEGA]2 | [DFA]7/2 [Adf]/ [Adf]7/2 [Bdfa]/ | [Bdfa]4 [Beg]2 [Bdf]2 | %190
 [GBe]2 [GB=d]f [GBe]2 B_d | c2 A2 B2 c2 | [=GBdf]4 [GBc=e]3 [GBce] | [Acf]2 [Acf]2 [GBe]2 [GBe]2 | %194
!ped! Td/4e/4d/4e/4d/4e/4d/4e/4d/4e/4d/4e/4c/d/!ped-up! e2 A>e | f2 DF!ped! A z z2!ped-up! | %196
 [=GBdf]4 [GBc=e]3 [GBce] | [Acf]2 [Acf]2 [_GBe]2 [GBe]2 |!f! [FA]2 z2 z2!ped! [FA]2 | %199
 [FA]2!ped-up! z2 z2!ped! A2 | A2!ped-up! z2 z2!ped! A2 | A2!ped-up!!ped! A2 A2!ped-up! z2 | %202
!f!!ped! [_cdfa]4 [Bdg]3!ped-up! [=Adf] |!ped! [=Adf]4!ped-up!!ped! [Bdg]4!ped-up! | %204
!mp!!ped! d/e/d/e/ d/e/d/e/ d/e/d/e/ d/e/d/e/!ped-up! | %205
!ped! d/e/d/e/ d/e/d/e/ d/e/d/e/!ped-up!!ped! d z!ped-up! |!ped! [Adf]4 [GAce]3!ped-up! [FAd] | %207
!ped! [Adf]4 [GAce]3!ped-up! [FAd] |!ped! [EGAd]2 [EGAc]2 [EGB]2 [EGAc]2!ped-up! | %209
!ped! [FAd]4!ped-up!!ped! z4!ped-up! |!ped! [_cdfa]4 [Bdg]3!ped-up! [=Adf] | %211
!ped! [=Adf]4!ped-up!!ped! [Bdg]4!ped-up! |!mp!!ped! d/e/d/e/ d/e/d/e/ d/e/d/e/ d/e/d/e/!ped-up! | %213
!ped! d/e/d/e/ d/e/d/e/ d/e/d/e/!ped-up! d z |!ped! [Adf]4 [GAce]3!ped-up! [FAd] | %215
!ped! [Adf]4 [GAce]3!ped-up! [FAd] |!ped! [EGAd]2 [EGAc]2 [EGB]2 [EGAc]2!ped-up! | %217
!ped! [FAd]4!ped-up!!ped! z2 z3/2 [FAdf]/ | [FAdf]4 [FAdf]4 | %219
 [FAdf]4!ped-up!!ped! z2 z3/2 [FAdf]/ | [FAdf]4 [FAdf]4 | [FAdf]8!ped-up! | [FAdf]4 [FAdf]4 | %223
 [FAdf]8- | !fermata![FAdf]2 z2 z4 |] %225
V:3
 x8 | x8 || x8 | x8 | x8 | =GBBB BBBB | x8 | x8 || x8 | x8 | x8 | x8 | x8 | x8 | x8 | x8 | x8 | %17
 x8 | x8 | x8 | x8 | x8 | x8 | x8 | x8 | x8 | x8 | x8 | x8 | x8 | x8 | x8 | x8 | x8 | x8 | %35
[M:3/4] x2 | x6 | x6 | x6 | x6 | x6 | x6 | x6 | x6 | x6 | x6 | x6 | x6 | x6 | x6 | x6 | x6 | x6 | %53
 x6 | x6 | x6 | x6 | x6 | x6 | x6 | x6 | x6 | x6 | x6 | x6 | x6 | x6 | x6 | x6 | x6 | x6 | x6 | %72
 x6 | x6 | x6 | x6 | x6 | x6 | x6 | x6 | x6 | x6 | x6 | x6 | x6 | x6 | x6 | x6 | x6 | x6 | x6 | %91
 x6 | x6 | (3c!pp![EFA][EFA] (3[EFA][EFA][EFA] (3[EFA][EFA][EFA] | %94
 (3c[DFA][DFA] (3[DFA][DFA][DFA] (3B[DFA][DFA] | x6 | x6 | x6 | x6 | x6 | x6 | x6 | x6 | x6 | x6 || %105
[K:Db][M:4/4] x8 | x8 | x8 | x8 | x8 | x8 | x8 | x8 | x8 | x8 | x8 | x8 | x8 | x8 | x8 || x8 | x8 | %122
 x8 | x8 | x8 | x8 | x6 [Gc]2 | x8 | x8 | x8 | x8 | x8 | x8 | x8 | x8 | x8 | x8 | x8 | x8 | x8 | %140
 x8 | x8 | x6 [Gc]2 | x8 | x8 | x8 | x8 | x8 | x8 | x8 | x8 | x8 | x8 | x8 | x8 | x8 | x8 | x8 | %158
 x8 | x8 | x8 | x8 | x8 | x8 | x8 | x8 | x8 | x8 | x8 | x8 | x8 | x8 | x8 | x8 | x8 | x8 | x8 | %177
 x8 | x8 | x8 | x8 | x8 | x6 [Gc]2 | x8 | x8 | x8 | x8 | x8 | x8 | x8 | x8 | x8 | x8 | x8 | x8 | %195
 x8 | x8 | x8 | x8 | x8 | x8 | x8 | x8 | x8 | x8 | x8 | x8 | x8 | x8 | x8 | x8 | x8 | x8 | x8 | %214
 x8 | x8 | x8 | x8 | x8 | x8 | x8 | x8 | x8 | x8 | x8 |] %225
V:4
 x8 | x8 || x8 | x8 | x8 | x8 | x2!8va(! x2!8va)! x4 | x8 || x8 | x8 |!8va(! x8 | x4!8va)! x4 | %12
 x8 | x8 | x8 | x8 | x8 | x8 | x8 | x8 | x6!8va(! x2 | x7!8va)! x | x8 | x8 | x8 | x8 | x8 | x8 | %28
 x8 | x8 | x8 | x8 | x8 | x8 | x8 |[M:3/4] x2 | x6 | x6 | x6 | x6 | x6 | x6 | x6 | x6 | x6 | x6 | %46
 x6 | x6 | x6 | x6 | x6 | E4 B,>B, | x6 | x6 | x6 | x6 | x6 | e3 dcB | B2 B2 B2 | B6 | x6 | B4 z2 | %62
!8va(! x6 | x6 | x6 | x6 | x6 | x6 | x6 | x6 | x6 | x6 | x6 | x6 | x6 | x6 | x6 | x6 | x6 | x6 | %80
 x6 | x6 | x6 | x6 | x6 | x6 | x6 | x6 | x6 | x6 | x6 | x6 | x6 | %93
 (3c'[efa][efa] (3[efa][efa][efa] (3[efa][efa][efa] | %94
 (3c'!pp![dfa][dfa] (3[dfa][dfa][dfa] (3b!pp![dfa][dfa] | x6 | x6 | x6 | x6 | x!8va)! x5 | x6 | %101
 x6 | x6 |!8va(! x2!8va)! x4 | x6 ||[K:Db][M:4/4] x8 | x8 | x8 | x8 | x8 | x8 | x8 | x8 | x8 | x8 | %115
 x8 | x8 | x8 | x8 | x8 ||!8va(! x8 | x8 | x8 | x8 | x8 | x8 | x6 [gc']2 | x8 | x8 | x8 | x8 | x8 | %132
 x8 | x8 | x8 | x8 | x8 | x8 | x8 | x8 | x8 | x8 | x6 [gc']2 | x8 | x8 | x8 | x8 | x8 | x8 | x8 | %150
 x8 | x8 | x8 | x8 | x8 | x8 | x8 | x8 | x8 | x8 | x8 | x8 | x8 | x8 | x8 | x8 | x8 | x8 | x8 | %169
 x8 | x8 | x8 | x8 | x8 | x8 | x8 | x8 | x8 | x8 | x8 | x8 | x8 | x6 [gc']2 | x8 | x8 | x8 | x8 | %187
 x8 | x8 | x8 | x8 | x8 | x8 | x8 | x8 | x8 | x8 | x8 | x2!8va)! x6 | x8 | x8 | x8 | x8 | x8 | x8 | %205
 x8 |!8va(! x8 | x8 | x8 | x8!8va)! | x8 | x8 | x8 | x8 |!8va(! x8 | x8 | x8 | x8 | x8 | x8 | x8 | %221
 x8 | x8 | x8 | x4!8va)! x4 |] %225
V:5
 z8 | z8 || z8 | z8 | z8 | z8 | z8 | z8 || z8 | z8 | z8 | z8 | z8 | z8 |!p! =D2 =C2 B,2 A,2 | %15
 =G,2 ^F,2 E,2 [=D,G,B,]2 | [E,=G,=C]2 z2 z4 | z8 | z2 =C2 =G,2 E,2 | z2 [^A,E]2 [A,E]2 [A,E]2 | %20
!p! [B,D]B,B,B, B,B,B,B, | B,B,B,B, B,B,B,B, | B,B,B,B, B,B,B,B, | B,B,B,B, B,B,B,B, | %24
!pp! B,B,B,B, B,B,B,B, | B,B,B,B, B,B,B,B, | B,B,B,B, B,B,B,B, | B,B,B,B, B,B,B,B, | %28
 B,2 z2 z2 F,2 | =G,2 z2 z2 G,2 | F,2 z2 z2 [B,D]2 | [^A,E]6 [A,E]2 | [B,D]2 z2 z4 | %33
!pp! B,2 z2 z4 | !fermata!B,8 |[M:3/4]!p! [E,G,B,]>[E,G,B,] | [G,B,E]3 [E,G,B,] [G,B,E][B,DF] | %37
[K:treble] [DF]2 [EG]2 [=DEB]2 | [CEA]2 [B,EG]2 [A,EF]2 | !arpeggio![B,EB]4 [B,EG]2 | %40
 [G,CE]2 [G,CD]2 [G,CE]2 | [A,CE]2 [A,CF]3 [B,G] | [CFA]3 [B,G][A,CF][G,E] | %43
 [G,B,E]2 [F,B,D]2[K:bass] [D,A,B,]>[D,A,B,] | [E,G,B,E]3 [E,G,B,][G,B,E][B,DF] | %45
[K:treble] [B,DF]2 [B,EG]2 [=DEB]2 | [CEA]2 [B,EG]2 [A,EF]2 | !arpeggio![B,EB]4 [B,EG]2 | %48
 [F,^A,E]2 [F,A,D]2 [F,A,E]2 | [B,F]4 FG | A3 FED | [G,B,E]4 B,>B, | [B,GB]3 [B,EG][B,DF][B,EG] | %53
 [CEA]3 [B,DG][A,CF][G,B,E] | [F,G,B,D]2 [G,B,E]2[K:bass] [E,=G,C]2 | %55
 [E,F,^A,]2 [D,F,B,]2[K:treble] B,>B, | [B,GB]3 [B,EG] [B,DF][B,EG] | B A2 [B,DG] [A,CF][G,B,E] | %58
 E>D [A,B,D]2 [A,B,E]2 | ^E2 F4 | z B, [A,B,D]2 [A,B,E]2 | !fermata!G2 !fermata!F2 B,>B, | %62
 [G,B,E]3 x E[B,DF] | [B,DF]2 [B,EG]2 [=DEGB]2 | [CEA]2 [B,EG]2 [A,EF]2 | %65
 !arpeggio![B,EGB]4 [B,EG]2 | [G,CE]2 [G,CD]2 [G,CE]2 | [A,CE]2 [A,CF]3 [B,G] | %68
 [CFA]3 [B,CG][A,CF][A,CE] | [A,B,E]2 [A,B,D]2 x2 | E3 x E[B,DF] | [B,DF]2 [B,EG]2 [=DEGB]2 | %72
 [CEA]2 [B,EG]2 [A,EF]2 | !arpeggio![B,EGB]4 [B,EG]2 | [F,^A,E]2 [F,A,D]2 [F,A,E]2 | %75
 [B,F]4 [B,F]2 | [B,=DG]2 [B,DF]2 [B,DG]2 | [CFA]4 [CFA]2 |!f! [FAc]2 [FAc]2 [FAc]2 | %79
 [EGc]3!>(! [EGB] [CFA][A,CF]!>)! | [G,B,E]3 x E[B,DF] | [B,DF]2 [B,EG]2 [B,EG]2 | B2 A2 G2 | %83
 G2 A2 A2 | c2 B2 ^A2 | ^A2 B2 B2 |!p! BG G2 F2 | BG G2 F2 | %88
 (3[B,EG][B,EG]!<(![B,EG] (3[A,EA][A,EA][A,EA] (3[=DEG][DEG][DEG]!<)! | %89
 (3[A,EA][A,EA][A,EA] (3[B,EG][B,EG][B,EG] (3[CEFc][CEFc][CEFc] | %90
!mf! (3[B,EGB][B,EGB][B,EGB] (3[B,FA][B,FA][B,FA] (3[B,EA][B,EA][B,EA] | %91
 (3[B,DA][B,DA][B,DA] (3[B,DA][B,DA][B,DA] (3[B,EG][B,EG][B,EG] | %92
[K:bass] (3[A,B,D][A,B,D][A,B,D] (3[G,B,E][G,B,E][G,B,E]!p! (3[^A,E][A,E][A,E] | z2!p! F,2 C2 | %94
 z2 F,2 B,2 |!p! [G,B,E]3 [E,G,B,] [G,B,E][B,EG] |[K:treble] [A,B,DF]2 [G,B,E]2 [G,B,E]>E | %97
 [=CEA]3 [A,CE][CEA][EA=c] | [=DEGB]2 [=CEA]2 [EA=c][Ace] | [EGBe]3 .[EGB].[B,EG].[EGB] | %100
 [EGB]3 .[B,EG].[G,B,E].[B,EG] | [B,EG]3 .Ex.E | E[B,EG][EGB].[G,B,E].[B,EG].[EGB] | %103
 [B,EG]2 .[B,EG]2 .[G,B,E]2 | [G,B,E]6 ||[K:Db][M:4/4] z4 z2 (3A,AA,!f! | A2 z2 z2 (3A,AA, | %107
 A2 z2 z2 (3A,AA, | A2 (3AEC (3A,CE (3AEC | (3A,CE (3AEC A,2 (3A,AA, | A2 z2 z2 (3A,AA, | %111
 A2 z2 z2 (3A,AA, | A2 (3A_FD (3A,DF (3AFD | (3A,D_F (3AFD A,2 (3A,AA, | A2 (3CEG [CEG]2 (3A,AA, | %115
 A2 (3=B,=DF [B,DF]2 (3A,AA, | A2 (3CEG [CEG]2 (3A,AA, | A2 (3=B,=DF [B,DF]2 (3A,AA, | %118
 A,2 A,=G, A,G,A,G, | A,=G,A,G, A,=A,B,C || [=G,B,DF]4 [G,B,C=E]3 [G,B,CE] | %121
 [A,CF]2 [A,CF]2 [G,B,E]2 [G,B,E]2 |[K:bass] [F,A,D]4 [G,B,C]2 [G,B,C]2 | [F,A,D]4 z4 | %124
 [=G,B,DF]4 [G,B,C=E]3 [G,B,CE] | [A,CF]2 [A,CF]2 [G,B,E]2 [G,B,E]2 | [F,A,D]4 [F,A,D]2 [G,A,C]2 | %127
!ff! [G,A,C]4 [F,A,D]2 z2 | [F,A,D]4 [F,A,D]3 [F,A,D] | [F,A,D]2 [G,A,C]2 [G,A,C]2 A,2 | %130
 [F,A,]7/2 [F,A,D]/ [F,A,D]7/2 [F,A,D]/ | [F,A,D]2 [G,A,C]2 [G,A,C]2 A,2 | %132
 [F,A,]7/2 [F,A,D]/ [F,A,D]7/2 [F,B,F]/ | [F,B,F]4 [E,B,E]2 [F,B,DF]2 | %134
 [G,B,DE]4 [G,B,DE]2 [G,B,DE]2 | [E,A,CE]2 A,2 B,2 C2 | [=G,B,DF]4 [G,B,C=E]3 [G,B,CE] | %137
 [A,CF]2 [A,CF]2 [G,B,E]2 [G,B,E]2 | [F,A,D]4 [G,B,C]2 [G,B,C]2 | [F,A,D]2 z2 z4 | %140
 [=G,B,DF]4 [G,B,C=E]3 [G,B,CE] | [A,CF]2 [A,CF]2 [G,B,E]2 [G,B,E]2 | [F,A,D]4 [F,A,D]2 [G,A,C]2 | %143
 [G,A,C]4 [F,A,D]2[K:treble]!mf! D2 | A,[DF]B,[DF] _C[DF]=C[DF] | D[GB]G[Bd] B[dg]G[Bd] | %146
 F[G=Ac]E[GAc] B[GAc]C[GA] | C[G=A][GA][GA] D[GB]D[F_A] | G[Bd][Bd][Bd] D[GB]B,[DG] | %149
 D[GB][GB][GB] B,[DG]G,[B,D] | B,[DG]A,[DF] B,[DG]_C[DF] | %151
 B,[DG][DG][DG] [B,DG][B,DG][B,DG][B,DG] | z [G,D][G,D][G,D] z [G,D][G,D][G,D] | %153
 z [_C__E][CE][CE] [CE][CE][CE][CE] | z [G,D][G,D][G,D] z [G,D][G,D][G,D] | %155
 z [_C__E][CE][CE] [CE][CE][CE][CE] | z [A,_EG][A,EG][A,EG] [A,EG][A,EG][A,EG][A,EG] | %157
 z [A,EG][A,EG][A,EG] z [=A,EG][A,EG][A,EG] | z [B,DG][B,DG][B,DG] z [_CDF][CDF][CDF] | %159
 z!mp!!>(! [B,DG][B,DG][B,DG] [B,DG]!p![B,DG][B,DG]!>)![B,DG] | %160
!pp! z [B,FA][B,FA][B,FA] z [B,FA][B,FA][B,FA] | z [B,EG][B,EG][B,EG] z [B,EG][B,EG][B,EG] | %162
 z [B,=DA][B,DA][B,DA] z [B,DA][B,DA][B,DA] | z [B,EG][B,EG][B,EG] z [B,E][B,E][B,E] | %164
 z [_C=DF][CDF][CDF] z [B,E][B,E][B,E] | z [_C=DF][CDF][CDF] z [B,E][B,E][B,E] | %166
 z [_CEF][CEF][CEF] z [CEF][CEF][CEF] | z [B,EF][B,EF][B,EF] [B,=DF][B,DF][B,DF][B,DF] | %168
 z [B,DE][B,DE][B,DE] z [B,DE][B,DE][B,DE] | z [A,DEA][A,DEA][A,DEA] [A,DEA][A,DEA][A,DEA][A,DEA] | %170
 z [DE=G][DEG][DEG] z [DEG][DEG][DEG] | z [A,DEA][A,DEA][A,DEA] [A,DEA][A,DEA][A,DEA][A,DEA] | %172
 z"^crescendo" [B,DE][B,DE][B,DE] z [B,DF]z[B,DE] | z [B,DF]z[B,DE] z [B,DF]z[B,DE] | %174
 z [B,DF]z[B,DE] z [B,DF]z[B,DE] | z [B,DF]z[B,DE] z [B,DF]z[B,DE] | %176
 [=G,B,DF]4!f! [G,B,C=E]3 [G,B,CE] | [A,CF]2 [A,CF]2 [_G,B,_E]2 [G,B,E]2 | %178
[K:bass] [F,A,D]4 [G,B,C]2 [G,B,C]2 | [F,A,D]4 z4 |!ff! [=G,B,DF]4 [G,B,C=E]3 [G,B,CE] | %181
 [A,CF]2 [A,CF]2 [G,B,E]2 [G,B,E]2 | [F,A,D]4 [F,A,D]2 [G,A,C]2 | [G,A,C]4 [F,A,D]2 z2 | %184
 [F,A,D]4 [F,A,D]3 [F,A,D] | [F,A,D]2 [G,A,C]2 [G,A,C]2 A,2 | %186
 [F,A,]7/2 [F,A,D]/ [F,A,D]7/2 [F,A,D]/ | [F,A,D]2 [G,A,C]2 [G,A,C]2 A,2 | %188
 [F,A,]7/2 [F,A,D]/ [F,A,D]7/2 [F,B,F]/ | [F,B,F]4 [E,B,E]2 [F,B,DF]2 | %190
 [G,B,DE]4 [G,B,DE]2 [G,B,DE]2 | [E,A,CE]2 A,2 B,2 C2 | [=G,B,DF]4 [G,B,C=E]3 [G,B,CE] | %193
 [A,CF]2 [A,CF]2 [G,B,E]2 [G,B,E]2 | [F,A,D]4 [G,B,C]2 [G,B,C]2 | [F,A,D]2 z2 z4 | %196
 [=G,B,DF]4 [G,B,C=E]3 [G,B,CE] | [A,CF]2 [A,CF]2 [G,B,E]2 [G,B,E]2 | %198
 [F,A,D]2 (3D,F,A, D2 [F,A,D]2 | [F,A,D]2 (3F,A,D F2 [F,A,DF]2 | [F,A,DF]2 (3F,A,D F2 (3[F,A,]DF | %201
 [F,A,]2 (3[F,A,]DF [F,A,]2!ff! (3[F,A,]DF |[K:treble]!f! [_CDFA]4 [B,DG]3 [=A,DF] | %203
 [=A,DF]4 [B,DG]4 | [B,DG]4 [A,DF]3 [=G,D=E] | [=G,D=E]4 [A,DF]4 | %206
[K:bass]!ff! [A,DF]4 [G,A,CE]3 [F,A,D] | [A,DF]4 [G,A,CE]3 [F,A,D] | %208
 [E,G,A,D]2 [E,G,A,C]2 [E,G,B,]2 [E,G,B,C]2 | [F,A,D]4 z4 |[K:treble] [_CDFA]4 [B,DG]3 [=A,DF] | %211
 [=A,DF]4 [B,DG]4 | [B,DG]4 [A,DF]3 [=G,D=E] | [=G,D=E]4 [A,DF]4 | %214
[K:bass] [A,DF]4 [G,A,CE]3 [F,A,D] | [A,DF]4 [G,A,CE]3 [F,A,D] | %216
 [E,G,A,D]2 [E,G,A,C]2 [E,G,B,]2 [E,G,B,C]2 | [F,A,D]4 z2 z3/2 [F,A,D]/ | [F,A,D]4 [F,A,D]4 | %219
 [F,A,D]4 z2 z3/2 [F,A,D]/ | [F,A,D]4 [F,A,D]4 | [F,A,D]8 | [D,F,A,D]4 [D,F,A,D]4 | [D,F,A,D]8- | %224
 !fermata![D,F,A,D]2 z2 z4 |] %225
V:6
 z8 | z8 || z8 | z8 | z8 | z8 | z8 | z8 || z8 | z8 | z8 | z8 | z8 | z8 | z8 | z4 z2 [=G,,,=G,,]2 | %16
 [=C,,=C,]2 z2 z4 | z8 | z8 | =C,2 =G,,2 E,,2 =C,,2 | %20
 B,,,/B,,/B,,,/B,,/ B,,,/B,,/B,,,/B,,/ B,,,/B,,/B,,,/B,,/ B,,,/B,,/B,,,/B,,/ | %21
 B,,,/B,,/B,,,/B,,/ B,,,/B,,/B,,,/B,,/ B,,,/B,,/B,,,/B,,/ B,,,/B,,/B,,,/B,,/ | %22
 B,,,/B,,/B,,,/B,,/ B,,,/B,,/B,,,/B,,/ B,,,/B,,/B,,,/B,,/ B,,,/B,,/B,,,/B,,/ | %23
 B,,,/B,,/B,,,/B,,/ B,,,/B,,/B,,,/B,,/ B,,,/B,,/B,,,/B,,/ B,,,/B,,/B,,,/B,,/ | %24
 B,,,/B,,/B,,,/B,,/ B,,,/B,,/B,,,/B,,/ B,,,/B,,/B,,,/B,,/ B,,,/B,,/B,,,/B,,/ | %25
 B,,,/B,,/B,,,/B,,/ B,,,/B,,/B,,,/B,,/ B,,,/B,,/B,,,/B,,/ B,,,/B,,/B,,,/B,,/ | %26
 B,,,/B,,/B,,,/B,,/ B,,,/B,,/B,,,/B,,/ B,,,/B,,/B,,,/B,,/ B,,,/B,,/B,,,/B,,/ | %27
 B,,,/B,,/B,,,/B,,/ B,,,/B,,/B,,,/B,,/ B,,,/B,,/B,,,/B,,/ B,,,/B,,/B,,,/B,,/ | %28
 [B,,,B,,]2 z2 z2 [B,,,B,,]2- | [B,,,B,,]2 z2 z2 [B,,,B,,]2- | [B,,,B,,]2 z2 z2 [B,,,B,,]2 | %31
 [=C,,=C,]6 [C,,C,]2 | [B,,,B,,]2 z2 z4 | [B,,,B,,]2 z2 z4 |!pp! !fermata![B,,,B,,]8 |[M:3/4] z2 | %36
 [E,,B,,]6 | [E,,B,,]6 | [E,,E,]6 |!ped! !arpeggio![E,,G,]6!ped-up! | [C,,C,]6 | [A,,,A,,]6 | %42
 [F,,,F,,]6 | [B,,,B,,]6 | [E,,,E,,]6 | [E,,E,]6 | [E,,E,]6 |!ped! !arpeggio![E,,G,]6!ped-up! | %48
 [C,,C,]6 | [B,,,B,,]6 | [F,,C,F,]4 B,,2 | E,,.B,,.B,,.B,,.B,,.B,, | B,,,.B,,.B,,.B,,.B,,.B,, | %53
 B,,,.B,,.B,,[B,,,B,,][B,,,B,,][B,,,B,,] | [B,,,B,,]2 [B,,,B,,]2 [B,,,B,,]2 | [B,,,B,,]4 z2 | %56
 B,,,B,, B,,B,, B,,B,, | B,,,B,, B,,B,, B,,B,, | [B,,,B,,]2 [B,,,B,,]2 [B,,,B,,]2 | %59
 [=D,,=D,]2 [^D,,^D,]2 B,,>B,, | [B,,,B,,]2 [F,,F,]2 [E,,E,]2 | !fermata![D,,D,]4 z2 | %62
!p! x3 [E,G,B,][G,B,] x | [E,,E,]6 | [E,,E,]6 |!ped! !arpeggio![E,,E,]6!ped-up! | %66
 [C,,C,]4 [C,,C,]2 | [A,,,A,,]6 | [F,,,F,,]4 [F,,,F,,]2 | [B,,,B,,]4 [D,A,B,]>[D,A,B,] | %70
 [G,B,]3 [E,G,B,][G,B,] x | [E,,E,]6 | [E,,E,]6 |!ped! !arpeggio![E,,E,]6!ped-up! | %74
 [C,,C,]2!p!"^cres - cen - - do" [C,,C,]2 [C,,C,]2 | [D,,D,]4 [D,,D,]2 | %76
 [^E,,^E,]2 [E,,E,]2 [E,,E,]2 | [F,,F,]4 [E,,E,]2 | [D,,D,]2 [D,,D,]2 [D,,D,]2 | %79
 [E,,E,]4!mf! [A,,,A,,]2 |!mp! [B,,,B,,]3!p! [E,G,B,][G,B,] x | [E,,E,]4 [E,,E,]2 | %82
 [C,,C,]2 [C,,C,]2 [C,,C,]2 | [F,,,F,,]4 [F,,F,]2 | [D,,D,]2 [D,,D,]2 [D,,D,]2 | %85
 [G,,,G,,]4 [F,,F,]2 | [E,,B,,E,]4 [E,A,]2 | [E,,B,,E,]4 [E,A,]2 | %88
!p!"^cresc." (3[=D,,=D,][D,,D,][D,,D,] (3[C,,C,][C,,C,][C,,C,] (3[B,,,B,,][B,,,B,,][B,,,B,,] | %89
 (3[C,,C,][C,,C,][C,,C,] (3[B,,,B,,][B,,,B,,][B,,,B,,] (3[^A,,,^A,,][A,,,A,,][A,,,A,,] | %90
 (3[B,,,B,,][B,,,B,,][B,,,B,,] (3[B,,,B,,][B,,,B,,][B,,,B,,] (3[B,,,B,,][B,,,B,,][B,,,B,,] | %91
"^dim."!mf! (3[B,,,B,,][B,,,B,,][B,,,B,,] (3[B,,,B,,][B,,,B,,][B,,,B,,] (3[B,,,B,,][B,,,B,,][B,,,B,,] | %92
 (3[B,,,B,,][B,,,B,,][B,,,B,,] (3[B,,,B,,][B,,,B,,][B,,,B,,] (3[B,,,B,,][B,,,B,,][B,,,B,,] | %93
 (3[B,,,B,,][B,,,B,,][B,,,B,,] (3[B,,,B,,][B,,,B,,][B,,,B,,] (3[B,,,B,,][B,,,B,,][B,,,B,,] | %94
 (3[B,,,B,,][B,,,B,,][B,,,B,,] (3[B,,,B,,][B,,,B,,][B,,,B,,] (3[B,,,B,,][B,,,B,,][B,,,B,,] | %95
!pp!!ped! E,,,/4E,,/4E,,,/4E,,/4E,,,/4E,,/4E,,,/4E,,/4 E,,,/4E,,/4E,,,/4E,,/4E,,,/4E,,/4E,,,/4E,,/4 E,,,/4E,,/4E,,,/4E,,/4E,,,/4E,,/4E,,,/4E,,/4!ped-up! | %96
!ped! E,,,/4E,,/4E,,,/4E,,/4E,,,/4E,,/4E,,,/4E,,/4 E,,,/4E,,/4E,,,/4E,,/4E,,,/4E,,/4E,,,/4E,,/4 E,,,/4E,,/4E,,,/4E,,/4E,,,/4E,,/4E,,,/4E,,/4!ped-up! | %97
!ped! E,,,/4E,,/4E,,,/4E,,/4E,,,/4E,,/4E,,,/4E,,/4 E,,,/4E,,/4E,,,/4E,,/4E,,,/4E,,/4E,,,/4E,,/4 E,,,/4E,,/4E,,,/4E,,/4E,,,/4E,,/4E,,,/4E,,/4!ped-up! | %98
!ped! E,,,/4E,,/4E,,,/4E,,/4E,,,/4E,,/4E,,,/4E,,/4 E,,,/4E,,/4E,,,/4E,,/4E,,,/4E,,/4E,,,/4E,,/4 E,,,/4E,,/4E,,,/4E,,/4E,,,/4E,,/4E,,,/4E,,/4!ped-up! | %99
!pp! [E,,,E,,]6 | [E,,E,]6 | x3 .[G,B,].[E,G,B,].[G,B,] |"^rall." [E,G,B,]2 x4 | %103
 [E,,,E,,]2 .[E,,B,,E,]2 .[E,,B,,E,]2 | [E,,B,,E,]6 ||[K:Db][M:4/4] z4 z2 (3A,,A,,,A,, | %106
 A,,,2 z2 z2 (3A,,A,,,A,, | A,,,2 z2 z2 (3A,,A,,,A,, | %108
!ped! [A,,,A,,]2 [A,,,A,,]2!ped-up!!ped! [A,,,A,,]2 [A,,,A,,]2!ped-up! | %109
!ped! [A,,,A,,]2 [A,,,A,,]2 [A,,,A,,]2!ped-up! (3A,,A,,,A,, | A,,,2 z2 z2 (3A,,A,,,A,, | %111
 A,,,2 z2 z2 (3A,,A,,,A,, |!ped! A,,,2 [A,,,A,,]2!ped-up!!ped! [A,,,A,,]2 [A,,,A,,]2!ped-up! | %113
!ped! [A,,,A,,]2 [A,,,A,,]2 [A,,,A,,]2!ped-up! (3A,,A,,,A,, | %114
 A,,,2!ped! [A,,,A,,]2 [A,,,A,,]2!ped-up! z2 | z2!ped! [A,,,A,,]2 [A,,,A,,]2!ped-up! z2 | %116
 z2!ped! [A,,,A,,]2 [A,,,A,,]2!ped-up! z2 | z2!ped! [A,,,A,,]2 [A,,,A,,]2!ped-up! z2 | %118
 [A,,,A,,]2!ped! [A,,,A,,][=G,,,=G,,] [A,,,A,,][G,,,G,,][A,,,A,,][G,,,G,,]!ped-up! | %119
!f!!ped! [A,,,A,,]!<(![=G,,,=G,,][A,,,A,,][G,,,G,,]!ped-up!!ped! [A,,,A,,][=A,,,=A,,][B,,,B,,]!<)![C,,C,]!ped-up! || %120
!ff! [B,,,B,,]4 [C,,C,]3 [C,,C,] | [F,,,F,,]2 [F,,,F,,]2 [G,,,G,,]2 [G,,,G,,]2 | %122
 [A,,,A,,]4 [A,,,A,,]2 [A,,,A,,]2 | [D,,D,]4 z4 | [B,,,B,,]4 [C,,C,]3 [C,,C,] | %125
 [F,,,F,,]2 [F,,,F,,]2 [G,,,G,,]2 [G,,,G,,]2 | [A,,,A,,]4 [A,,,A,,]2 [A,,,A,,]2 | %127
 [A,,,A,,]4 [D,,D,]2 z2 | [D,,A,,D,]4 [D,,A,,D,]3 [D,,D,] | %129
 [A,,,A,,]2 [A,,,A,,]2 [A,,,A,,]2 [A,,,A,,]2 | [D,,A,,D,]7/2 [D,,A,,D,]/ [D,,A,,D,]7/2 [A,,,A,,]/ | %131
 [A,,,A,,]2 [A,,,A,,]2 [A,,,A,,]2 [A,,,A,,]2 | [D,,A,,D,]7/2 [D,,A,,D,]/ [D,,A,,D,]7/2 [G,,,G,,]/ | %133
 [G,,,G,,]4 [G,,,G,,]2 [G,,,G,,]2 | [G,,,G,,]4 [G,,,G,,]2 [=G,,,=G,,]2 | [A,,,A,,]2 z2 z4 | %136
 [B,,,B,,]4 [C,,C,]3 [C,,C,] | [F,,,F,,]2 [F,,,F,,]2 [G,,,G,,]2 [G,,,G,,]2 | %138
 [A,,,A,,]4 [A,,,A,,]2 [A,,,A,,]2 | [D,,D,]2 z2 z4 | [B,,,B,,]4 [C,,C,]3 [C,,C,] | %141
 [F,,,F,,]2 [F,,,F,,]2 [G,,,G,,]2 [G,,,G,,]2 | [A,,,A,,]4 [A,,,A,,]2 [A,,,A,,]2 | %143
 [A,,,A,,]4 [D,,D,]2 z2 |!ped! [D,,D,]4!ped-up!!ped! [D,,D,]4!ped-up! |!ped! [D,,D,]8!ped-up! | %146
!ped! [D,,D,]4!ped-up!!ped! [D,,D,]4!ped-up! |!ped! [D,,D,]6!ped-up! [_C,,_C,]2 | %148
!ped! [B,,,B,,]8!ped-up! |!ped! [G,,,G,,]8!ped-up! | [D,,D,]4 [D,,D,]4 |!ped! [G,,G,]8!ped-up! | %152
!ped! [B,,,B,,]4 [B,,,B,,]4!ped-up! |!ped! [_C,,_C,]8!ped-up! | %154
!ped! [B,,,B,,]4 [B,,,B,,]4!ped-up! |!ped! [_C,,_C,]8!ped-up! |!ped! [=C,,=C,]8!ped-up! | %157
!ped! [C,,C,]4!ped-up!!ped! [C,,C,]4!ped-up! |!ped! [D,,D,]4!ped-up!!ped! [D,,D,]4!ped-up! | %159
!ped! [G,,G,]8!ped-up! |!ped! [=D,,=D,]2 z2!ped-up!!ped! [D,,D,]2 z2!ped-up! | %161
!ped! [E,,E,]4 [E,,E,]4!ped-up! |!ped! [F,,F,]4 [F,,F,]4!ped-up! |!ped! [G,,G,]4 [G,,G,]4!ped-up! | %164
!ped! [A,,A,]4!ped-up!!ped! [G,,G,]4!ped-up! |!ped! [A,,A,]4!ped-up!!ped! [G,,G,]4!ped-up! | %166
!ped! [A,,A,]4 [A,,,A,,]4!ped-up! |!ped! [B,,,B,,]6!ped-up! [A,,A,]2 | %168
!ped! [=G,,=G,]4 [=G,,,G,,]4!ped-up! |!ped! [A,,,A,,]8!ped-up! |!ped! [B,,B,]4 [B,,,B,,]4!ped-up! | %171
!ped! [A,,,A,,]4 z4!ped-up! |!pp! =G,3 G, A,2 G,2 | A,2 =G,2 A,2 G,2 | A,2 =G,2 A,2 G,2 | %175
 A,2 =G,2 A,2 G,2 |!ff! [B,,,B,,]4 [C,,C,]3 [C,,C,] | [F,,,F,,]2 [F,,,F,,]2 [G,,,G,,]2 [G,,,G,,]2 | %178
 [A,,,A,,]4 [A,,,A,,]2 [A,,,A,,]2 | [D,,D,]4 z4 | [B,,,B,,]4 [C,,C,]3 [C,,C,] | %181
 [F,,,F,,]2 [F,,,F,,]2 [G,,,G,,]2 [G,,,G,,]2 | [A,,,A,,]4 [A,,,A,,]2 [A,,,A,,]2 | %183
 [A,,,A,,]4 [D,,D,]2 z2 | [D,,A,,D,]4 [D,,A,,D,]3 [D,,D,] | %185
 [A,,,A,,]2 [A,,,A,,]2 [A,,,A,,]2 [A,,,A,,]2 | [D,,A,,D,]7/2 [D,,A,,D,]/ [D,,A,,D,]7/2 [A,,,A,,]/ | %187
 [A,,,A,,]2 [A,,,A,,]2 [A,,,A,,]2 [A,,,A,,]2 | [D,,A,,D,]7/2 [D,,A,,D,]/ [D,,A,,D,]7/2 [G,,,G,,]/ | %189
 [G,,,G,,]4 [G,,,G,,]2 [G,,,G,,]2 | [G,,,G,,]4 [G,,,G,,]2 [=G,,,=G,,]2 | [A,,,A,,]2 z2 z4 | %192
 [B,,,B,,]4 [C,,C,]3 [C,,C,] | [F,,,F,,]2 [F,,,F,,]2 [G,,,G,,]2 [G,,,G,,]2 | %194
 [A,,,A,,]4 [A,,,A,,]2 [A,,,A,,]2 | [D,,D,]2 z2 z4 | [B,,,B,,]4 [C,,C,]3 [C,,C,] | %197
 [F,,,F,,]2 [F,,,F,,]2 [G,,,G,,]2 [G,,,G,,]2 |!f! [A,,,A,,]2 z2 z2!ped! [A,,,A,,]2 | %199
 [A,,,A,,]2!ped-up! z2 z2!ped! [A,,,A,,]2 | [A,,,A,,]2!ped-up! z2 z2!ped! [A,,,A,,]2 | %201
 [A,,,A,,]2!ped-up!!ped! [A,,,A,,]2 [A,,,A,,]2!ped-up!!ped! z2!ped-up! |!ped! z8!ped-up! | %203
!ped! z8!ped-up!!ped!!ped-up! |!ped! [B,,D,G,]4 [A,,D,F,]3!ped-up! [=G,,D,=E,] | %205
!ped! [=G,,D,=E,]4!ped-up!!ped! [A,,D,F,]4!ped-up! |!ped! [A,,,A,,]4 [A,,,A,,]3!ped-up! [A,,,A,,] | %207
!ped! [A,,,A,,]4 [A,,,A,,]3!ped-up! [A,,,A,,] | %208
!ped! [A,,,A,,]2 [A,,,A,,]2 [A,,,A,,]2 [A,,,A,,]2!ped-up! |!ped! [D,,,D,,]4!ped-up! z4 | %210
!ped! z8!ped-up! |!ped! z8!ped-up!!ped!!ped-up! |!ped! [B,,D,G,]4 [A,,D,F,]3!ped-up! [=G,,D,=E,] | %213
!ped! [=G,,D,=E,]4!ped-up!!ped! [A,,D,F,]4!ped-up! |!ped! [A,,,A,,]4 [A,,,A,,]3!ped-up! [A,,,A,,] | %215
!ped! [A,,,A,,]4 [A,,,A,,]3!ped-up! [A,,,A,,] | %216
!ped! [A,,,A,,]2 [A,,,A,,]2 [A,,,A,,]2 [A,,,A,,]2!ped-up! | %217
!ped! [D,,,D,,]4!ped-up! z2 z3/2!ped! [D,,A,,D,]/ | [D,,A,,D,]4 [D,,A,,D,]4 | %219
 [D,,A,,D,]4!ped-up! z2 z3/2!ped! [D,,D,]/ | [D,,A,,D,]4 [D,,A,,D,]4 | [D,,A,,D,]8!ped-up! | %222
!ped! D,,,/4D,,/4D,,,/4D,,/4D,,,/4D,,/4D,,,/4D,,/4 D,,,/4D,,/4D,,,/4D,,/4D,,,/4D,,/4D,,,/4D,,/4 D,,,/4D,,/4D,,,/4D,,/4D,,,/4D,,/4D,,,/4D,,/4 D,,,/4D,,/4D,,,/4D,,/4D,,,/4D,,/4D,,,/4D,,/4 | %223
 D,,,/4D,,/4D,,,/4D,,/4D,,,/4D,,/4D,,,/4D,,/4 D,,,/4D,,/4D,,,/4D,,/4D,,,/4D,,/4D,,,/4D,,/4 D,,,/4D,,/4D,,,/4D,,/4D,,,/4D,,/4D,,,/4D,,/4 D,,,/4D,,/4D,,,/4D,,/4D,,,/4D,,/4D,,,/4D,,/4 | %224
 !fermata![D,,,D,,]2 z2!ped-up! z4 |] %225
V:7
 x8 | x8 || x8 | x8 | x8 | x8 | x8 | x8 || x8 | x8 | x8 | x8 | x8 | x8 | x8 | x8 | x8 | x8 | x8 | %19
 x8 | x8 | x8 | x8 | x8 | x8 | x8 | x8 | x8 | x8 | x8 | x8 | x8 | x8 | x8 | x8 |[M:3/4] x2 | x6 | %37
[K:treble] B,4 x2 | x6 | x6 | x6 | x6 | x6 | x4[K:bass] x2 | x6 |[K:treble] x6 | x6 | x6 | x6 | %49
 E2 D2 D2 | [A,C]4 [A,B,]2 | x6 | x6 | x6 | x4[K:bass] x2 | x4[K:treble] x2 | x6 | [CE]3 x x2 | %58
 [A,B,] x x4 | [A,B,]6 | x6 | !fermata![A,B,]4 x2 | x6 | x6 | x6 | x6 | x6 | x6 | x6 | x6 | x6 | %71
 x6 | x6 | x6 | x6 | x6 | x6 | x6 | x6 | x6 | x6 | x6 | ^EB, EB, EB, | ^EB, FA, FC | ^^FC FC FC | %85
 ^^FC GB, [D=A]B, | (3B/E/B,/(3G/E/B,/ (3G/B,/E/(3G/E/B,/ (3F/B,/D/(3F/D/B,/ | %87
 (3B/E/B,/(3G/E/B,/ (3G/B,/E/(3G/E/B,/ (3F/B,/D/(3F/D/B,/ | x6 | x6 | x6 | x6 |[K:bass] x6 | x6 | %94
 x6 | x6 |[K:treble] x6 | x6 | x6 | x6 | x6 | x6 | x6 | x6 | x6 ||[K:Db][M:4/4] x8 | x8 | x8 | x8 | %109
 x8 | x8 | x8 | x8 | x8 | x8 | x8 | x8 | x8 | x8 | x8 || x8 | x8 |[K:bass] x8 | x8 | x8 | x8 | x8 | %127
 x8 | x8 | x8 | x8 | x8 | x8 | x8 | x8 | x8 | x8 | x8 | x8 | x8 | x8 | x8 | x8 | x6[K:treble] x2 | %144
 A,2 B,2 _C2 =C2 | D2 G2 B2 G2 | F2 E2 D2 C2 | C4 D2 D2 | G4 D2 B,2 | D4 B,2 G,2 | %150
 B,2 A,2 B,2 _C2 | B,4 x4 | x8 | x8 | x8 | x8 | x8 | x8 | x8 | x8 | x8 | x8 | x8 | x8 | x8 | x8 | %166
 x8 | x8 | x8 | x8 | x8 | x8 | x8 | x8 | x8 | x8 | x8 | x8 |[K:bass] x8 | x8 | x8 | x8 | x8 | x8 | %184
 x8 | x8 | x8 | x8 | x8 | x8 | x8 | x8 | x8 | x8 | x8 | x8 | x8 | x8 | x8 | x8 | x8 | x8 | %202
[K:treble] x8 | x8 | x8 | x8 |[K:bass] x8 | x8 | x8 | x8 |[K:treble] x8 | x8 | x8 | x8 | %214
[K:bass] x8 | x8 | x8 | x8 | x8 | x8 | x8 | x8 | x8 | x8 | x8 |] %225
V:8
 x8 | x8 || x8 | x8 | x8 | x8 | x8 | x8 || x8 | x8 | x8 | x8 | x8 | x8 | x8 | x8 | x8 | x8 | x8 | %19
 x8 | x8 | x8 | x8 | x8 | x8 | x8 | x8 | x8 | x8 | x8 | x8 | x8 | x8 | x8 | x8 |[M:3/4] x2 | x6 | %37
 x6 | x6 | x6 | x6 | x6 | x6 | x6 | x6 | x6 | x6 | x6 | x6 | x6 | x6 | E,,6 | B,,,6 | B,,,3 x x2 | %54
 x6 | x6 | x6 | x6 | x6 | x6 | x6 | x6 | [E,,E,]6 | x6 | x6 | x6 | x6 | x6 | x6 | x4 [B,,,B,,]2 | %70
 [E,,,E,,]6 | x6 | x6 | x6 | x6 | x6 | x6 | x6 | x6 | x6 | x3 [B,,,B,,][B,,,B,,][B,,,B,,] | x6 | %82
 x6 | x6 | x6 | x6 | x6 | x6 | x6 | x6 | x6 | x6 | x6 | x6 | x6 | x6 | x6 | x6 | x6 | x6 | x6 | %101
 [E,,,E,,]6 | [E,,,E,,]6 | x6 | x6 ||[K:Db][M:4/4] x8 | x8 | x8 | x8 | x8 | x8 | x8 | x8 | x8 | %114
 x8 | x8 | x8 | x8 | x8 | x8 || x8 | x8 | x8 | x8 | x8 | x8 | x8 | x8 | x8 | x8 | x8 | x8 | x8 | %133
 x8 | x8 | x8 | x8 | x8 | x8 | x8 | x8 | x8 | x8 | x8 | x8 | x8 | x8 | x8 | x8 | x8 | x8 | x8 | %152
 x8 | x8 | x8 | x8 | x8 | x8 | x8 | x8 | x8 | x8 | x8 | x8 | x8 | x8 | x8 | x8 | x8 | x8 | x8 | %171
 x8 | x8 | x8 | x8 | x8 | x8 | x8 | x8 | x8 | x8 | x8 | x8 | x8 | x8 | x8 | x8 | x8 | x8 | x8 | %190
 x8 | x8 | x8 | x8 | x8 | x8 | x8 | x8 | x8 | x8 | x8 | x8 | x8 | x8 | x8 | x8 | x8 | x8 | x8 | %209
 x8 | x8 | x8 | x8 | x8 | x8 | x8 | x8 | x8 | x8 | x8 | x8 | x8 | x8 | x8 | x8 |] %225

